!!!ONB: MCCC : IJB0015_04 : Extracted Monophonic Melody
!!!COM: Brahms, Johannes
!!!OPR: Clarinet Sonata No.1
!!!OMV: 4
!!!SCT: Op.120 No.1
!!!ODT: 1894///
**kern
*staff1
*clefF4
*k[b-]
*F:
*M4/4
8bb
8ccc
=5
1cc[
=6
4cc]
4r
4r
8b
8cc
=7
1c[
=8
4c]
4r
4r
8b
8cc
=9
2dd[
8dd]
8cc
8b-
8a
=10
8g
8a
8b-
8cc
8b-
8a
8f
8f
=11
8b-
8b-
8a
8a
8g
8g
8b-
8a
=12
8e
8e
8d
8d
8c
8c
8b
8cc
=13
2dd[
8dd]
8cc
8b-
8a
=14
8g
8a
8b-
8cc
8b-
8a
8g
8f
=15
2.e
8cc
8b
=16
2.a
4r
=17
1r
=18
1r
=19
1r
=20
2r
4r
8cc
8a
=21
8b
8a-
8e
8B
8e
8a-
8cc
8a
=22
8b
8a-
8e
8B
8b
8f#
8e-
8B
=23
2b
2cc
=24
2cc
2cc#
=25
2dd[
8dd]
8cc
8b-
8a
=26
8g
8a
8b-
8cc
8b-
8a
8f
8f
=27
8b-
8b-
8a
8a
8g
8g
8b-
8a
=28
8e
8e
8d
8d
8c#
8c#
8a-
8a
=29
4.dd
8ee
8ff
8cc
8b-
8a
=30
8gg
8ee
8b-
8cc
8b-
8a
8ff
8gg
=31
2.aa
8dd
8ee
=32
2ff
2ff
=33
2ff[
8ff]
8cc
8b-
8g
=34
2ff
2ff
=35
2ff[
8ff]
8cc
8b-
8g
=36
1r
=37
1r
=38
1r
=39
1r
=40
1r
=41
8r
8gg
8ff
8dd
8b
8g
8f
8d
=42
6r
6c
6cc
2ccc
=43
6r
6c
6cc
2ccc
=44
6r
6G
6g
2gg
=45
6r
6G
6g
2gg
=46
2r
6r
6ee
6ff
=47
2aa[
6aa]
6gg
6ee
=48
3ff
3dd
6ee
6cc#
=49
3dd
3b
6cc
6a
=50
6b
6ee
6dd
3aa
6aa-
=51
6gg
6dd
6ee
3b
6cc
=52
6cc#
6ff
6ee
3bb-
6aa
=53
6aa
6ee
6ff
3cc#
6dd
=54
2r
8b
8ee
8dd
8aa
=55
4gg
4r
8g
8d
8e
8B-
=56
4A
4r
8cc#
8ff
8ee
8bb-
=57
4aa
4r
8a
8e
8f
8d
=58
2B
4aa
4aa[
=59
4aa]
4ee
4ff
4cc#
=60
1ee
=61
2dd
2r
=62
2cc
2cc
=63
1cc[
=64
4cc]
4r
8r
8c
8d
8f
=65
2e
8r
8c
8d
8G
=66
2c
2c
=67
1c
=68
1r
=69
1r
=70
1r
=71
1r
=72
2r
4r
8bb
8ccc
=73
1cc[
=74
4cc]
4r
4r
8b
8cc
=75
1c[
=76
4c]
4r
4r
8b
8cc
=77
2dd[
8dd]
8cc
8b-
8a
=78
8g
8a
8b-
8cc
8b-
8a
8f
8f
=79
8b-
8b-
8a
8a
8g
8g
8b-
8a
=80
8e
8e
8d
8d
8c
8c
8b
8cc
=81
2dd[
8dd]
8cc
8b-
8a
=82
8g
8a
8b-
8cc
8b-
8a
8g
8f
=83
2.e
8cc
8b
=84
2.a
4r
=85
1r
=86
1r
=87
1r
=88
1r
=89
1r
=90
1r
=91
1r
=92
1r
=93
8b-
8f
8d
8B-
8A
8a
8f
8c
=94
8e
8B-
8G
8E
8F
8c
4r
=95
1r
=96
2r
4r
8a-
8a
=97
4.dd
8ee
8ff
8cc
8b-
8a
=98
8gg
8ee
8b-
8cc
8b-
8a
8ff
8gg
=99
2.aa
8dd
8ee
=100
2.ff
4r
=101
1r
=102
1r
=103
1r
=104
1r
=105
2dd[
8dd]
8cc
8b-
8a
=106
8g
8a
8b-
8cc
8b-
8a
4r
=107
1r
=108
1r
=109
8D
8B-
8d
8B-
8D
8B-
8d
8B-
=110
8D
8c
8d
8G
8E
8A
4r
=111
4r
8B-
8A
2G
=112
4A
4r
2r
=113
4r
8G
8F
2E
=114
4A
4r
2r
=115
1r
=116
4r
8r
8aa-
2gg
=117
1r
=118
4r
8r
8A-
2A
=119
1r
=120
1r
=121
1r
=122
1r
=123
4.e
8f
4e
4r
=124
4.e
8b-
4a
4r
=125
4.e
8f
4.e
8b-
=126
2b-[
8b-]
8dd
8cc
8b-
=127
4.a
8b-
4a
4r
=128
4.b-
8cc
4b-
4r
=129
8a
8f
8a
8dd
2g
=130
8f
8d
8f
8a
2e
=131
1r
=132
1r
=133
1r
=134
1r
=135
4.a
8b-
4a
4r
=136
4.b-
8cc
4b-
4r
=137
4.A
8B-
4A
4r
=138
4.B-
8c
4.c
8d
=139
4d
4c
4B-
4F
=140
4A
4r
2r
=141
4G
4r
2r
=142
2F
2F
=143
1F
=144
2F
2F
=145
1F
=146
2ff
2ff
=147
1ff
=148
2ff
2ff
=149
1ff
=150
2r
6r
6e
6ee
=151
4ff
4r
6r
6cc
6c
=152
4A
4r
6r
6f#
6ff#
=153
4gg
4r
6r
6dd
6d
=154
4c
4r
2r
=155
1r
=156
1r
=157
2r
2ddd[
=158
4ddd]
4aa
4bb-
4ff
=159
4ee
4r
2r
=160
1r
=161
1r
=162
1r
=163
2cc#
2cc#
=164
1cc#[
=165
4cc#]
4r
2r
=166
2c#
2c#
=167
1c#[
=168
4c#]
4r
2r
=169
2A
2A
=170
1A[
=171
4A]
4r
2r
=172
1r
=173
1r
=174
2ff
2ff
=175
2ff[
8ff]
8cc
8b-
8g
=176
8a
8cc
8b-
8dd
4.cc
8g
=177
8a
8cc
8b-
8dd
4.cc
8g
=178
8a
8cc
8b-
8dd
8e
8g
8f
8a
=179
4.B
8d
8g
8b
8cc
8aa
=180
4ff
4r
2r
=181
8r
8G
8B
8d
8f#
8g
8b
8dd
=182
4e
4r
2r
=183
8r
8bb-
8gg
8ee
8dd
8cc
8b-
8g
=184
4e
4f
4c#
4d
=185
4G
4c
4F
4f
=186
4b-
4a
4g
4f
=187
4e
4d
4c
4r
=188
1r
=189
2r
4r
4a
=190
4g
4f
4e
4dd
=191
4cc
4b
4a
4r
=192
4r
4E
2A
=193
8r
8E
4A
8r
8A
4E
=194
1r
=195
2r
4r
4cc
=196
2.b
4cc
=197
2b
2b
=198
2b
2cc
=199
2cc
2cc#
=200
2dd[
8dd]
8cc
8b-
8a
=201
8g
8a
8b-
8cc
8b-
8a
8f
8f
=202
8b-
8b-
8a
8a
8g
8g
8b-
8a
=203
8e
8e
8d
8d
8c#
8c#
8a-
8a
=204
4.dd
8ee
8ff
8cc
8b-
8a
=205
8gg
8ee
8b-
8cc
8b-
8a
8ff
8gg
=206
2.aa
8dd
8ee
=207
2ff
2ff
=208
2ff[
8ff]
8cc
8b-
8g
=209
2aa
2aa
=210
4.aa
8ff
8ff
8cc
8cc
8g
=211
2r
4.cc
8g
=212
2r
4.ff
8cc
=213
1r
=214
4.aa
8ee
4.aa
8ee
=215
32ff
32ee
32ff
32ee
32ff
32ee
32ff
32ee
32ff
32ee
32ff
32ee
32ff
32ee
32ff
32ee
32ff
32ee
32ff
32ee
32ff
32ee
32ff
32ee
32ff
32ee
32ff
32ee
32ff
32ee
32dd
32ee
=216
4ff
4r
12F
12A
12c
12f
12a
12cc
=217
4ff
4r
12F
12A
12c
12f
12a
12cc
=218
1aa
=219
4ff
4r
4ff
4r
=220
1F[
=221
2F]
2r
==
*-
